icons/src/scalable/default/devices/phone-symbolic.svg

<svg version="1.1" viewBox="0 0 16 16" xmlns="http://www.w3.org/2000/svg">
 <path d="m5 0c-1.108 0-2 0.892-2 2v12c0 1.108 0.892 2 2 2h6c1.108 0 2-0.892 2-2v-12c0-1.108-0.892-2-2-2h-6zm-0.5 3h7c0.277 0 0.5 0.223 0.5 0.5v9c0 0.277-0.223 0.5-0.5 0.5h-7c-0.277 0-0.5-0.223-0.5-0.5v-9c0-0.277 0.223-0.5 0.5-0.5zm3.5 10.75c0.41421 0 0.75 0.33579 0.75 0.75s-0.33579 0.75-0.75 0.75-0.75-0.33579-0.75-0.75 0.33579-0.75 0.75-0.75z" color="#000000" fill="#bebebe"/>
</svg>

<?xml version="1.0" encoding="UTF-8" standalone="no"?>
<!-- Created with Inkscape (http://www.inkscape.org/) -->

<svg
   xmlns:dc="http://purl.org/dc/elements/1.1/"
   xmlns:cc="http://creativecommons.org/ns#"
   xmlns:rdf="http://www.w3.org/1999/02/22-rdf-syntax-ns#"
   xmlns:svg="http://www.w3.org/2000/svg"
   xmlns="http://www.w3.org/2000/svg"
   xmlns:sodipodi="http://sodipodi.sourceforge.net/DTD/sodipodi-0.dtd"
   xmlns:inkscape="http://www.inkscape.org/namespaces/inkscape"
   width="16px"
   height="16px"
   id="svg3838"
   version="1.1"
   inkscape:version="0.48.3.1 r9886"
   sodipodi:docname="phone-symbolic.svg">
  <defs
     id="defs3840" />
  <sodipodi:namedview
     id="base"
     pagecolor="#ffffff"
     bordercolor="#666666"
     borderopacity="1.0"
     inkscape:pageopacity="0.0"
     inkscape:pageshadow="2"
     inkscape:zoom="22.197802"
     inkscape:cx="8"
     inkscape:cy="8"
     inkscape:current-layer="layer1"
     showgrid="true"
     inkscape:grid-bbox="true"
     inkscape:document-units="px"
     inkscape:window-width="453"
     inkscape:window-height="430"
     inkscape:window-x="0"
     inkscape:window-y="46"
     inkscape:window-maximized="0" />
  <metadata
     id="metadata3843">
    <rdf:RDF>
      <cc:Work
         rdf:about="">
        <dc:format>image/svg+xml</dc:format>
        <dc:type
           rdf:resource="http://purl.org/dc/dcmitype/StillImage" />
        <dc:title></dc:title>
      </cc:Work>
    </rdf:RDF>
  </metadata>
  <g
     id="layer1"
     inkscape:label="Layer 1"
     inkscape:groupmode="layer">
    <path
       inkscape:connector-curvature="0"
       style="color:#000000;fill:#bebebe;fill-opacity:1;stroke:none;stroke-width:0.99999982;marker:none;visibility:visible;display:inline;overflow:visible;enable-background:accumulate"
       d="M 5,0 C 3.892,0 3,0.892 3,2 l 0,12 c 0,1.108 0.892,2 2,2 l 6,0 c 1.108,0 2,-0.892 2,-2 L 13,2 C 13,0.892 12.108,0 11,0 L 5,0 z m -0.5,3 7,0 C 11.777,3 12,3.223 12,3.5 l 0,9 c 0,0.277 -0.223,0.5 -0.5,0.5 l -7,0 C 4.223,13 4,12.777 4,12.5 l 0,-9 C 4,3.223 4.223,3 4.5,3 z M 8,13.75 c 0.4142136,0 0.75,0.335786 0.75,0.75 0,0.414214 -0.3357864,0.75 -0.75,0.75 -0.4142136,0 -0.75,-0.335786 -0.75,-0.75 0,-0.414214 0.3357864,-0.75 0.75,-0.75 z"
       id="rect3015" />
  </g>
</svg>
